X: 16
T: No_113_Hinata_Dance_Song_(i).krn
N: Derived from No_113_Hinata_Dance_Song_(i).krn
%%abc-version 2.0
%%abcx-abcm2ps-target-version 5.9.1 (29 Sep 2008)
%%abc-creator hum2abc beta
%%abcx-conversion-date 2019/03/15 08:38:45
%%humdrum-veritas 763265960
%%humdrum-veritas-data 2776857613
%%linebreak <none>
%%barnumbers 0
L: 1/8
M: 3/4
K: Bb clef=bass
[K:clef=bass][M:3/4]z3C C/C/G, ]|:  
B,2CG,/G,/ B,!fermata!G, | 
!fermata!F,2F,F, F,/D,/D,/C,/ | 
B,,2B,,B,, B,,F, | 
G,2(G,3/D,/) G,3/D,/ ||  
[M:2/4]F,3z | 
F,F, F,/D,/D,/C,/ ||  
[M:3/4]B,,B,, z C C/C/G, :|]  
[M:2/4]B,,4 |]  



